packages/IcoMoon/src/SphereIcon/index.svg

<svg version="1.1" xmlns="http://www.w3.org/2000/svg" width="16" height="16" viewBox="0 0 16 16">
<path d="M7.5 1c-4.142 0-7.5 3.358-7.5 7.5s3.358 7.5 7.5 7.5c4.142 0 7.5-3.358 7.5-7.5s-3.358-7.5-7.5-7.5zM11.744 11c0.134-0.632 0.219-1.303 0.246-2h1.991c-0.052 0.691-0.213 1.361-0.479 2h-1.758zM3.256 6c-0.134 0.632-0.219 1.303-0.246 2h-1.991c0.052-0.691 0.213-1.361 0.479-2h1.758zM10.719 6c0.15 0.64 0.241 1.31 0.27 2h-2.989v-2h2.719zM8 5v-2.927c0.228 0.066 0.454 0.178 0.675 0.334 0.415 0.293 0.813 0.744 1.149 1.304 0.233 0.388 0.434 0.819 0.601 1.289h-2.426zM5.176 3.711c0.336-0.561 0.734-1.012 1.149-1.304 0.222-0.156 0.447-0.268 0.675-0.334v2.927h-2.426c0.168-0.47 0.369-0.901 0.601-1.289zM7 6v2h-2.989c0.029-0.69 0.12-1.36 0.27-2h2.719zM1.498 11c-0.266-0.639-0.427-1.309-0.479-2h1.991c0.028 0.697 0.112 1.368 0.246 2h-1.758zM4.011 9h2.989v2h-2.719c-0.15-0.64-0.241-1.31-0.27-2zM7 12v2.927c-0.228-0.066-0.454-0.178-0.675-0.334-0.415-0.293-0.813-0.744-1.149-1.304-0.233-0.388-0.434-0.819-0.602-1.289h2.426zM9.825 13.289c-0.336 0.561-0.734 1.012-1.149 1.304-0.222 0.156-0.447 0.268-0.675 0.334v-2.927h2.426c-0.168 0.47-0.369 0.901-0.602 1.289zM8 11v-2h2.989c-0.029 0.69-0.12 1.36-0.27 2h-2.719zM11.99 8c-0.028-0.697-0.112-1.368-0.246-2h1.758c0.267 0.639 0.427 1.309 0.479 2h-1.991zM12.979 5h-1.498c-0.291-0.918-0.693-1.723-1.177-2.366 0.665 0.318 1.267 0.744 1.792 1.27 0.336 0.336 0.631 0.702 0.883 1.096zM2.904 3.904c0.526-0.526 1.128-0.952 1.792-1.27-0.483 0.643-0.886 1.448-1.177 2.366h-1.498c0.252-0.394 0.547-0.761 0.883-1.096zM2.021 12h1.498c0.291 0.918 0.693 1.723 1.177 2.366-0.665-0.318-1.267-0.744-1.792-1.27-0.336-0.336-0.631-0.702-0.883-1.096zM12.096 13.096c-0.526 0.526-1.128 0.952-1.792 1.27 0.483-0.643 0.886-1.448 1.177-2.366h1.498c-0.252 0.394-0.547 0.761-0.883 1.096z"></path>
</svg>

<svg xmlns="http://www.w3.org/2000/svg" viewBox="0 0 16 16">
  <path d="M7.5 1a7.5 7.5 0 100 15 7.5 7.5 0 000-15zm4.244 10c.134-.632.219-1.303.246-2h1.991a6.443 6.443 0 01-.479 2h-1.758zM3.256 6a11.876 11.876 0 00-.246 2H1.019a6.443 6.443 0 01.479-2h1.758zm7.463 0c.15.64.241 1.31.27 2H8V6h2.719zM8 5V2.073c.228.066.454.178.675.334.415.293.813.744 1.149 1.304.233.388.434.819.601 1.289H7.999zM5.176 3.711c.336-.561.734-1.012 1.149-1.304.222-.156.447-.268.675-.334V5H4.574a7.29 7.29 0 01.601-1.289zM7 6v2H4.011c.029-.69.12-1.36.27-2H7zm-5.502 5a6.443 6.443 0 01-.479-2H3.01c.028.697.112 1.368.246 2H1.498zm2.513-2H7v2H4.281c-.15-.64-.241-1.31-.27-2zM7 12v2.927a2.27 2.27 0 01-.675-.334c-.415-.293-.813-.744-1.149-1.304A7.221 7.221 0 014.574 12H7zm2.825 1.289c-.336.561-.734 1.012-1.149 1.304a2.282 2.282 0 01-.675.334V12h2.426c-.168.47-.369.901-.602 1.289zM8 11V9h2.989c-.029.69-.12 1.36-.27 2H8zm3.99-3a11.98 11.98 0 00-.246-2h1.758c.267.639.427 1.309.479 2H11.99zm.989-3h-1.498c-.291-.918-.693-1.723-1.177-2.366a6.462 6.462 0 011.792 1.27c.336.336.631.702.883 1.096zM2.904 3.904a6.492 6.492 0 011.792-1.27C4.213 3.277 3.81 4.082 3.519 5H2.021c.252-.394.547-.761.883-1.096zM2.021 12h1.498c.291.918.693 1.723 1.177 2.366a6.462 6.462 0 01-1.792-1.27A6.505 6.505 0 012.021 12zm10.075 1.096a6.492 6.492 0 01-1.792 1.27c.483-.643.886-1.448 1.177-2.366h1.498a6.466 6.466 0 01-.883 1.096z"/>
</svg>
